X: 40703
T: Torth O Fara
R: jig
M: 6/8
K: Dmajor
|:A|d2 d d2 e|dcB A3|d2 d f2 f|ABc d2:|
d|f2 f f2 d|agf e3|f2 f f2 a|afd e2 A|
d2 d d2 e|dcB A3|d2 d f2 f|ABc d2||

